icons/lines/pen-remove-one.svg

<svg xmlns="http://www.w3.org/2000/svg" width="24" height="24" viewBox="0 0 24 24" fill="none" stroke="currentColor" stroke-width="2" stroke-linecap="round" stroke-linejoin="round" >
  <path d="M21.1901 8.03996L18.0101 4.85997C16.8101 3.65997 15.1601 3.72 14.3501 5.01L12.5801 7.80998L18.2501 13.48L21.0501 11.71C22.2601 10.94 22.3301 9.16996 21.1901 8.03996Z"/>
  <path d="M18.2501 13.47L18.4901 17.59C18.7201 19.89 17.9201 20.69 15.7401 20.95L7.02011 21.98C5.18011 22.19 3.86011 20.87 4.08011 19.04L5.06012 10.76"/>
  <path d="M12.5801 7.81L10.8301 7.70001"/>
  <path d="M5.28027 20.78L8.46027 17.59"/>
  <path d="M11 6.5C11 6.91 10.94 7.32001 10.83 7.70001C10.72 8.10001 10.56 8.47001 10.35 8.82001C10.11 9.22001 9.80999 9.58 9.45999 9.88C8.66999 10.58 7.64 11 6.5 11C5.99 11 5.51 10.92 5.06 10.76C4.04 10.42 3.18999 9.72001 2.64999 8.82001C2.23999 8.14001 2 7.34 2 6.5C2 5.08 2.65 3.80999 3.69 2.98999C4.46 2.36999 5.44 2 6.5 2C8.99 2 11 4.01 11 6.5Z" stroke-miterlimit="10"/>
  <path d="M8.15982 6.5H4.7998" stroke-miterlimit="10"/>
  </svg>

<svg xmlns="http://www.w3.org/2000/svg" width="24" height="24" viewBox="0 0 24 24" fill="none" stroke="currentColor" stroke-width="2" stroke-linecap="round" stroke-linejoin="round">
  <path d="M11 6.5a4.4 4.4 0 0 1-.17 1.2 4.5 4.5 0 0 1-.48 1.12 4.3 4.3 0 0 1-.89 1.06A4.43 4.43 0 0 1 6.5 11a4.3 4.3 0 0 1-1.44-.24A4.47 4.47 0 0 1 6.5 2 4.494 4.494 0 0 1 11 6.5" />
  <path d="m12.58 7.81-1.75-.11" />
  <path d="M18.01 4.86c-1.2-1.2-2.85-1.14-3.66.15l-1.77 2.8 5.67 5.67 2.8-1.77c1.21-.77 1.28-2.54.14-3.67z" />
  <path d="m18.25 13.47.24 4.12c.23 2.3-.57 3.1-2.75 3.36l-8.72 1.03c-1.84.21-3.16-1.11-2.94-2.94l.98-8.28" />
  <path d="m5.28 20.78 3.18-3.19" />
  <path d="M8.16 6.5H4.8" />
</svg>
